public/pieces/anarcandy/bK.svg

<svg fill="none" height="512" viewBox="0 0 512 512" width="512" xmlns="http://www.w3.org/2000/svg"><path d="m246.005 34.0002c0-4.4184 3.581-8.0002 8-8.0002h4c4.418 0 8 3.5818 8 8.0002v40.0009h22.001c4.418 0 8 3.5818 8 8.0002v4.0001c0 4.4184-3.582 8.0002-8 8.0002h-22.001v13.7004c22.614 3.673 41.262 19.165 49.4 39.931 54.335-23.589 114.128-10.58 139.014 32.524 21.782 37.728 10.226 87.087-24.911 122.457 2.612 7.532-.911 15.949-4.942 21.816-1.399 2.037-.772 4.968 1.319 6.284 7.91 4.98 12.585 12.181 14.876 20.617.396.102.778.202 1.147.3 3.508.937 5.564 4.117 5.467 7.748-.389 14.636-2.246 36.763-7.355 49.575-1.468 3.68-5.397 5.106-9.237 4.426-5.258 11.908-11.436 22.286-16.66 28.957-.333.424-.74.745-1.19.962-8.828 24.888-32.579 42.712-60.493 42.712-15.174 0-29.118-5.267-40.104-14.073-8.475 5.476-25.948 11.873-55.475 11.873h-2.2c-29.685 0-47.187-6.466-55.611-11.961-11.002 8.858-24.989 14.161-40.214 14.161-27.98 0-51.777-17.908-60.5551-42.888-.3334-.206-.6367-.473-.8942-.802-5.225-6.675-11.4027-17.056-16.6587-28.965-3.8814.736-7.8841-.68-9.3687-4.402-5.1093-12.812-6.9658-34.939-7.3556-49.575-.0967-3.631 1.9593-6.811 5.4679-7.748.4153-.111.8489-.224 1.3001-.339 2.2959-8.423 6.9719-15.613 14.8759-20.585 2.0912-1.315 2.707-4.24 1.3081-6.277-4.0225-5.855-7.5397-14.249-4.9581-21.77-35.1727-35.373-46.7481-84.759-24.9566-122.503 24.8622-43.062 84.564-56.087 138.858-32.592 8.24-20.956 27.187-36.527 50.106-39.978v-13.5854h-22.001c-4.418 0-8-3.5818-8-8.0002v-4.0001c0-4.4184 3.582-8.0002 8-8.0002h22.001z" fill="#00173c"/><path d="m419.745 217.898c1.344 5.816 10.938 8.556 11.2 2.593.427-9.749-1.622-19.185-6.454-27.594-9.963-17.337-29.602-26.562-52.187-26.888-2.429-.035-2.392 3.932-.039 4.536 17.034 4.367 31.826 14.705 40.773 30.275 3.127 5.441 5.346 11.183 6.707 17.078z" fill="#ff9cae"/><path d="m255.897 198.004c9.847-13.624 22.762-25.986 38.325-35.985 3.532-2.269 8.151-1.566 11.026 1.494 1.596 1.699 1.188 4.443-.788 5.681-24.8 15.536-41.771 38.195-48.563 61.811-6.792-23.616-23.762-46.275-48.562-61.811-1.976-1.238-2.385-3.982-.788-5.681 2.874-3.06 7.493-3.763 11.025-1.494 15.564 9.999 28.479 22.361 38.325 35.985z" fill="#ff9cae"/><g fill="#ffe7eb"><path d="m255.639 285.806c-7.537.192-15.861.49-24.613.905-2.817.134-4.988 2.525-4.864 5.342l.181 4.112c.181 4.092 3.677 7.237 7.768 7.045 7.339-.345 14.557-.537 21.528-.537 6.97 0 14.555.192 21.894.537 4.091.192 7.587-2.953 7.768-7.045l.181-4.112c.124-2.817-2.048-5.208-4.864-5.342-8.752-.415-17.443-.713-24.979-.905z"/><path d="m163.555 302.409-.534-5.144c-.288-2.777 1.697-5.278 4.471-5.601 10.684-1.244 21.976-2.276 33.228-3.115 2.395-.179 4.484 1.606 4.692 3.999l.523 6.021c.314 3.625-2.364 6.818-5.985 7.172-9.585.938-19.044 2.034-28.102 3.206-4.11.531-7.866-2.416-8.293-6.538z"/><path d="m106.223 314.783c-6.061-7.92 7.578-13.924 29.848-18.366 4.333-.865 8.484 2.053 9.276 6.399l.81 4.448c.518 2.843-1.414 5.552-4.268 6.007-9.683 1.544-18.227 3.051-25.088 4.359-3.845.732-8.199.26-10.578-2.847z"/><path d="m348.622 297.265-.533 5.144c-.427 4.122-4.183 7.069-8.293 6.538-9.058-1.172-18.518-2.268-28.102-3.206-3.621-.354-6.3-3.547-5.985-7.172l.523-6.021c.208-2.393 2.296-4.178 4.692-3.999 11.252.839 22.544 1.871 33.228 3.115 2.774.323 4.759 2.824 4.47 5.601z"/><path d="m405.421 314.783c6.061-7.92-7.578-13.924-29.849-18.366-4.332-.865-8.483 2.053-9.275 6.399l-.81 4.448c-.518 2.843 1.413 5.552 4.267 6.007 9.684 1.544 18.228 3.051 25.089 4.359 3.844.732 8.199.26 10.578-2.847z"/><path d="m210.16 453.344c-27.448-53.799-75.176-47.885-98.573-37.016-1.72.799-3.779.282-4.741-1.352-.697-1.184-1.455-2.441-2.252-3.763-.687-1.141-1.404-2.33-2.137-3.562 14.701-3.377 31.856-6.541 46.796-8.731 10.861-1.592 18.948-11.231 18.051-22.171l-1.697-20.699c-.921-11.245-10.939-19.465-22.104-17.837-14.004 2.043-30.549 4.732-44.9657 7.358 4.1547-4.424 9.8327-8.623 17.3977-12.464 12.956-4.767 59.035-14.3 139.704-14.3 80.668 0 127.114 9.533 140.07 14.3 7.535 3.827 13.177 8.038 17.293 12.493-14.454-2.635-31.07-5.337-45.126-7.387-11.165-1.628-21.183 6.592-22.105 17.837l-1.696 20.699c-.897 10.94 7.19 20.579 18.05 22.171 15.01 2.2 32.255 5.384 47.001 8.778-.852 1.451-1.684 2.842-2.475 4.164l-.001.002-.001.002c-.649 1.085-1.27 2.123-1.851 3.11-.962 1.634-3.021 2.151-4.741 1.352-23.397-10.869-71.125-16.783-98.573 37.016-.725 1.421-1.868 2.636-3.334 3.266-7.201 3.09-23.13 7.767-42.511 7.767-19.382 0-34.944-4.677-42.145-7.767-1.467-.63-2.609-1.845-3.334-3.266z"/><path d="m88.4775 393.075c-3.1633-6.784-4.3128-18.502-4.5541-26.253-.0599-1.922 1.213-3.606 3.3854-4.102 8.5889-1.963 29.8772-5.115 45.8362-7.106 6.912-.862 13.115 3.491 13.685 9.446l1.051 10.961c.555 5.793-4.452 10.898-11.176 11.741-14.117 1.77-31.428 4.742-41.657 7.479-2.6226.702-5.5525.018-6.5705-2.166z"/><path d="m422.901 393.075c3.163-6.784 4.313-18.502 4.554-26.253.06-1.922-1.213-3.606-3.385-4.102-8.589-1.963-29.878-5.115-45.836-7.106-6.913-.862-13.115 3.491-13.686 9.446l-1.05 10.961c-.555 5.793 4.451 10.898 11.176 11.741 14.117 1.77 31.427 4.742 41.657 7.479 2.622.702 5.552.018 6.57-2.166z"/></g></svg>

<svg width="512" height="512" viewBox="0 0 512 512" fill="none" xmlns="http://www.w3.org/2000/svg">
<path d="M246.005 34.0002C246.005 29.5818 249.586 26 254.005 26H258.005C262.423 26 266.005 29.5818 266.005 34.0002V74.0011H288.006C292.424 74.0011 296.006 77.5829 296.006 82.0013V86.0014C296.006 90.4198 292.424 94.0016 288.006 94.0016H266.005V107.702C288.619 111.375 307.267 126.867 315.405 147.633C369.74 124.044 429.533 137.053 454.419 180.157C476.201 217.885 464.645 267.244 429.508 302.614C432.12 310.146 428.597 318.563 424.566 324.43C423.167 326.467 423.794 329.398 425.885 330.714C433.795 335.694 438.47 342.895 440.761 351.331C441.157 351.433 441.539 351.533 441.908 351.631C445.416 352.568 447.472 355.748 447.375 359.379C446.986 374.015 445.129 396.142 440.02 408.954C438.552 412.634 434.623 414.06 430.783 413.38C425.525 425.288 419.347 435.666 414.123 442.337C413.79 442.761 413.383 443.082 412.933 443.299C404.105 468.187 380.354 486.011 352.44 486.011C337.266 486.011 323.322 480.744 312.336 471.938C303.861 477.414 286.388 483.811 256.861 483.811H254.661C224.976 483.811 207.474 477.345 199.05 471.85C188.048 480.708 174.061 486.011 158.836 486.011C130.856 486.011 107.059 468.103 98.2809 443.123C97.9475 442.917 97.6442 442.65 97.3867 442.321C92.1617 435.646 85.984 425.265 80.728 413.356C76.8466 414.092 72.8439 412.676 71.3593 408.954C66.25 396.142 64.3935 374.015 64.0037 359.379C63.907 355.748 65.963 352.568 69.4716 351.631C69.8869 351.52 70.3205 351.407 70.7717 351.292C73.0676 342.869 77.7436 335.679 85.6476 330.707C87.7388 329.392 88.3546 326.467 86.9557 324.43C82.9332 318.575 79.416 310.181 81.9976 302.66C46.8249 267.287 35.2495 217.901 57.041 180.157C81.9032 137.095 141.605 124.07 195.899 147.565C204.139 126.609 223.086 111.038 246.005 107.587V94.0016H224.004C219.586 94.0016 216.004 90.4198 216.004 86.0014V82.0013C216.004 77.5829 219.586 74.0011 224.004 74.0011H246.005V34.0002Z" fill="#00173C"/>
<path d="M419.745 217.898C421.089 223.714 430.683 226.454 430.945 220.491C431.372 210.742 429.323 201.306 424.491 192.897C414.528 175.56 394.889 166.335 372.304 166.009C369.875 165.974 369.912 169.941 372.265 170.545C389.299 174.912 404.091 185.25 413.038 200.82C416.165 206.261 418.384 212.003 419.745 217.898Z" fill="#FF9CAE"/>
<path d="M255.897 198.004C265.744 184.38 278.659 172.018 294.222 162.019C297.754 159.75 302.373 160.453 305.248 163.513C306.844 165.212 306.436 167.956 304.46 169.194C279.66 184.73 262.689 207.389 255.897 231.005C249.105 207.389 232.135 184.73 207.335 169.194C205.359 167.956 204.95 165.212 206.547 163.513C209.421 160.453 214.04 159.75 217.572 162.019C233.136 172.018 246.051 184.38 255.897 198.004Z" fill="#FF9CAE"/>
<path d="M255.639 285.806C248.102 285.998 239.778 286.296 231.026 286.711C228.209 286.845 226.038 289.236 226.162 292.053L226.343 296.165C226.524 300.257 230.02 303.402 234.111 303.21C241.45 302.865 248.668 302.673 255.639 302.673C262.609 302.673 270.194 302.865 277.533 303.21C281.624 303.402 285.12 300.257 285.301 296.165L285.482 292.053C285.606 289.236 283.434 286.845 280.618 286.711C271.866 286.296 263.175 285.998 255.639 285.806Z" fill="#FFE7EB"/>
<path d="M163.555 302.409L163.021 297.265C162.733 294.488 164.718 291.987 167.492 291.664C178.176 290.42 189.468 289.388 200.72 288.549C203.115 288.37 205.204 290.155 205.412 292.548L205.935 298.569C206.249 302.194 203.571 305.387 199.95 305.741C190.365 306.679 180.906 307.775 171.848 308.947C167.738 309.478 163.982 306.531 163.555 302.409Z" fill="#FFE7EB"/>
<path d="M106.223 314.783C100.162 306.863 113.801 300.859 136.071 296.417C140.404 295.552 144.555 298.47 145.347 302.816L146.157 307.264C146.675 310.107 144.743 312.816 141.889 313.271C132.206 314.815 123.662 316.322 116.801 317.63C112.956 318.362 108.602 317.89 106.223 314.783Z" fill="#FFE7EB"/>
<path d="M348.622 297.265L348.089 302.409C347.662 306.531 343.906 309.478 339.796 308.947C330.738 307.775 321.278 306.679 311.694 305.741C308.073 305.387 305.394 302.194 305.709 298.569L306.232 292.548C306.44 290.155 308.528 288.37 310.924 288.549C322.176 289.388 333.468 290.42 344.152 291.664C346.926 291.987 348.911 294.488 348.622 297.265Z" fill="#FFE7EB"/>
<path d="M405.421 314.783C411.482 306.863 397.843 300.859 375.572 296.417C371.24 295.552 367.089 298.47 366.297 302.816L365.487 307.264C364.969 310.107 366.9 312.816 369.754 313.271C379.438 314.815 387.982 316.322 394.843 317.63C398.687 318.362 403.042 317.89 405.421 314.783Z" fill="#FFE7EB"/>
<path d="M210.16 453.344C182.712 399.545 134.984 405.459 111.587 416.328C109.867 417.127 107.808 416.61 106.846 414.976C106.149 413.792 105.391 412.535 104.594 411.213C103.907 410.072 103.19 408.883 102.457 407.651C117.158 404.274 134.313 401.11 149.253 398.92C160.114 397.328 168.201 387.689 167.304 376.749L165.607 356.05C164.686 344.805 154.668 336.585 143.503 338.213C129.499 340.256 112.954 342.945 98.5373 345.571C102.692 341.147 108.37 336.948 115.935 333.107C128.891 328.34 174.97 318.807 255.639 318.807C336.307 318.807 382.753 328.34 395.709 333.107C403.244 336.934 408.886 341.145 413.002 345.6C398.548 342.965 381.932 340.263 367.876 338.213C356.711 336.585 346.693 344.805 345.771 356.05L344.075 376.749C343.178 387.689 351.265 397.328 362.125 398.92C377.135 401.12 394.38 404.304 409.126 407.698C408.274 409.149 407.442 410.54 406.651 411.862L406.65 411.864L406.649 411.866C406 412.951 405.379 413.989 404.798 414.976C403.836 416.61 401.777 417.127 400.057 416.328C376.66 405.459 328.932 399.545 301.484 453.344C300.759 454.765 299.616 455.98 298.15 456.61C290.949 459.7 275.02 464.377 255.639 464.377C236.257 464.377 220.695 459.7 213.494 456.61C212.027 455.98 210.885 454.765 210.16 453.344Z" fill="#FFE7EB"/>
<path d="M88.4775 393.075C85.3142 386.291 84.1647 374.573 83.9234 366.822C83.8635 364.9 85.1364 363.216 87.3088 362.72C95.8977 360.757 117.186 357.605 133.145 355.614C140.057 354.752 146.26 359.105 146.83 365.06L147.881 376.021C148.436 381.814 143.429 386.919 136.705 387.762C122.588 389.532 105.277 392.504 95.048 395.241C92.4254 395.943 89.4955 395.259 88.4775 393.075Z" fill="#FFE7EB"/>
<path d="M422.901 393.075C426.064 386.291 427.214 374.573 427.455 366.822C427.515 364.9 426.242 363.216 424.07 362.72C415.481 360.757 394.192 357.605 378.234 355.614C371.321 354.752 365.119 359.105 364.548 365.06L363.498 376.021C362.943 381.814 367.949 386.919 374.674 387.762C388.791 389.532 406.101 392.504 416.331 395.241C418.953 395.943 421.883 395.259 422.901 393.075Z" fill="#FFE7EB"/>
</svg>
